src/images/poder.svg

<?xml version="1.0" encoding="utf-8"?>
<!-- Generator: Adobe Illustrator 16.0.0, SVG Export Plug-In . SVG Version: 6.00 Build 0)  -->
<!DOCTYPE svg PUBLIC "-//W3C//DTD SVG 1.1//EN" "http://www.w3.org/Graphics/SVG/1.1/DTD/svg11.dtd">
<svg version="1.1" id="Capa_1" xmlns="http://www.w3.org/2000/svg" xmlns:xlink="http://www.w3.org/1999/xlink" x="0px" y="0px"
	 width="118px" height="25px" viewBox="0 0 118 25" enable-background="new 0 0 118 25" xml:space="preserve">
<path id="XMLID_15_" fill="#95B3B1" d="M18.6,1.6c2.4,0,4.2,0.7,5.6,2c1.4,1.3,2.1,3.1,2.1,5.3c0,2.3-0.7,4.1-2.2,5.299
	C22.7,15.4,20.6,16,17.8,16H4.1v8.801H0.3V1.6H18.6z M18,12.5c3,0,4.4-1.2,4.4-3.6c0-2.6-1.6-3.8-4.7-3.8H4.1v7.4H18z"/>
<path id="XMLID_12_" opacity="0.9" fill="#397A7B" d="M51.7,12.6c0,3.8-1.6,6.9-4.7,9.201c-2.7,2-6.1,3.1-10.2,3.1
	c-4.1,0-7.5-1-10.2-3.1c-3.1-2.301-4.7-5.4-4.7-9.201c0-3.7,1.6-6.7,4.7-9.1c2.8-2.1,6.2-3.1,10.2-3.1s7.4,1,10.1,3.1
	C50.1,5.8,51.7,8.9,51.7,12.6z M47.7,12.6c0-2.7-1.1-4.9-3.4-6.6c-2-1.4-4.4-2.2-7.4-2.2c-3.2,0-5.8,0.8-7.9,2.5c-2,1.6-3,3.7-3,6.3
	c0,2.599,1,4.701,3,6.3s4.6,2.4,7.9,2.4c3.3,0,5.9-0.801,7.9-2.4C46.7,17.301,47.7,15.199,47.7,12.6z"/>
<path id="XMLID_9_" opacity="0.9" fill="#37637C" d="M62.4,1.6c4,0,7.199,1.1,9.6,3.2c2.4,2.1,3.5,5,3.5,8.6
	c0,3.299-1.2,6-3.7,8.199c-2.3,2-5.2,3.1-8.6,3.1H47.8V1.6H62.4z M63.5,21.301c2.3,0,4.2-0.701,5.7-2.201s2.2-3.4,2.2-5.699
	c0-2.5-0.801-4.5-2.4-6s-3.7-2.3-6.2-2.3H51.6v16.201H63.5z"/>
<polygon id="XMLID_7_" opacity="0.9" fill="#3E3C79" points="95.6,24.699 71.4,24.699 71.4,1.6 95.6,1.6 95.6,5 75.2,5 75.2,11 
	88.7,11 88.7,14.4 75.2,14.4 75.2,21.199 95.6,21.199 "/>
<path id="XMLID_4_" opacity="0.9" fill="#2E355A" d="M118,24.699h-4.5l-6.3-8.799H95.5v8.799h-3.8V1.6H110c2.4,0,4.3,0.7,5.7,2
	c1.399,1.3,2.1,3.1,2.1,5.3c0,2-0.6,3.5-1.7,4.7c-1,1.1-2.5,1.801-4.3,2.1L118,24.699z M109.4,12.5c3,0,4.399-1.2,4.399-3.6
	c0-2.6-1.6-3.8-4.8-3.8H95.5v7.4H109.4z"/>
</svg>

<?xml version="1.0" encoding="UTF-8" standalone="no"?>
<svg width="118px" height="25px" viewBox="0 0 118 25" version="1.1" xmlns="http://www.w3.org/2000/svg" xmlns:xlink="http://www.w3.org/1999/xlink">
    <!-- Generator: Sketch 41.2 (35397) - http://www.bohemiancoding.com/sketch -->
    <title>XMLID_3_ Copy</title>
    <desc>Created with Sketch.</desc>
    <defs></defs>
    <g id="Page-1" stroke="none" stroke-width="1" fill="none" fill-rule="evenodd" opacity="0.8">
        <g id="logo_poder" transform="translate(-24.000000, -72.000000)" fill="#000000">
            <g id="XMLID_3_-Copy" transform="translate(24.000000, 72.000000)">
                <path d="M18.6,1.6 C21,1.6 22.8,2.3 24.2,3.6 C25.6,4.9 26.3,6.7 26.3,8.9 C26.3,11.2 25.6,13 24.1,14.2 C22.7,15.4 20.6,16 17.8,16 L4.1,16 L4.1,24.8 L0.3,24.8 L0.3,1.6 L18.6,1.6 Z M18,12.5 C21,12.5 22.4,11.3 22.4,8.9 C22.4,6.3 20.8,5.1 17.7,5.1 L4.1,5.1 L4.1,12.5 L18,12.5 Z" id="XMLID_15_"></path>
                <path d="M51.7,12.6 C51.7,16.4 50.1,19.5 47,21.8 C44.3,23.8 40.9,24.9 36.8,24.9 C32.7,24.9 29.3,23.9 26.6,21.8 C23.5,19.5 21.9,16.4 21.9,12.6 C21.9,8.9 23.5,5.9 26.6,3.5 C29.4,1.4 32.8,0.4 36.8,0.4 C40.8,0.4 44.2,1.4 46.9,3.5 C50.1,5.8 51.7,8.9 51.7,12.6 Z M47.7,12.6 C47.7,9.9 46.6,7.7 44.3,6 C42.3,4.6 39.9,3.8 36.9,3.8 C33.7,3.8 31.1,4.6 29,6.3 C27,7.9 26,10 26,12.6 C26,15.2 27,17.3 29,18.9 C31,20.5 33.6,21.3 36.9,21.3 C40.2,21.3 42.8,20.5 44.8,18.9 C46.7,17.3 47.7,15.2 47.7,12.6 Z" id="XMLID_12_"></path>
                <path d="M62.4,1.6 C66.4,1.6 69.6,2.7 72,4.8 C74.4,6.9 75.5,9.8 75.5,13.4 C75.5,16.7 74.3,19.4 71.8,21.6 C69.5,23.6 66.6,24.7 63.2,24.7 L47.8,24.7 L47.8,1.6 L62.4,1.6 Z M63.5,21.3 C65.8,21.3 67.7,20.6 69.2,19.1 C70.7,17.6 71.4,15.7 71.4,13.4 C71.4,10.9 70.6,8.9 69,7.4 C67.4,5.9 65.3,5.1 62.8,5.1 L51.6,5.1 L51.6,21.3 L63.5,21.3 Z" id="XMLID_9_"></path>
                <polygon id="XMLID_7_" points="95.6 24.7 71.4 24.7 71.4 1.6 95.6 1.6 95.6 5 75.2 5 75.2 11 88.7 11 88.7 14.4 75.2 14.4 75.2 21.2 95.6 21.2 95.6 24.7"></polygon>
                <path d="M118,24.7 L113.5,24.7 L107.2,15.9 L95.5,15.9 L95.5,24.7 L91.7,24.7 L91.7,1.6 L110,1.6 C112.4,1.6 114.3,2.3 115.7,3.6 C117.1,4.9 117.8,6.7 117.8,8.9 C117.8,10.9 117.2,12.4 116.1,13.6 C115.1,14.7 113.6,15.4 111.8,15.7 L118,24.7 Z M109.4,12.5 C112.4,12.5 113.8,11.3 113.8,8.9 C113.8,6.3 112.2,5.1 109,5.1 L95.5,5.1 L95.5,12.5 L109.4,12.5 Z" id="XMLID_4_"></path>
            </g>
        </g>
    </g>
</svg>
